images/3234417.svg

<?xml version="1.0" encoding="UTF-8"?>
<svg xmlns="http://www.w3.org/2000/svg" xmlns:xlink="http://www.w3.org/1999/xlink" width="300pt" height="300pt" viewBox="0 0 300 300" version="1.1">
<defs>
<g>
<symbol overflow="visible" id="glyph0-0">
<path style="stroke:none;" d="M 0.546875 1.9375 L 0.546875 -7.75 L 6.046875 -7.75 L 6.046875 1.9375 Z M 1.171875 1.328125 L 5.4375 1.328125 L 5.4375 -7.140625 L 1.171875 -7.140625 Z M 1.171875 1.328125 "/>
</symbol>
<symbol overflow="visible" id="glyph0-1">
<path style="stroke:none;" d="M 1.078125 -8.015625 L 2.546875 -8.015625 L 6.09375 -1.3125 L 6.09375 -8.015625 L 7.15625 -8.015625 L 7.15625 0 L 5.6875 0 L 2.125 -6.703125 L 2.125 0 L 1.078125 0 Z M 1.078125 -8.015625 "/>
</symbol>
<symbol overflow="visible" id="glyph0-2">
<path style="stroke:none;" d="M 4.328125 -7.28125 C 3.546875 -7.28125 2.921875 -6.984375 2.453125 -6.390625 C 1.992188 -5.804688 1.765625 -5.007812 1.765625 -4 C 1.765625 -2.988281 1.992188 -2.1875 2.453125 -1.59375 C 2.921875 -1.007812 3.546875 -0.71875 4.328125 -0.71875 C 5.117188 -0.71875 5.742188 -1.007812 6.203125 -1.59375 C 6.660156 -2.1875 6.890625 -2.988281 6.890625 -4 C 6.890625 -5.007812 6.660156 -5.804688 6.203125 -6.390625 C 5.742188 -6.984375 5.117188 -7.28125 4.328125 -7.28125 Z M 4.328125 -8.171875 C 5.453125 -8.171875 6.351562 -7.789062 7.03125 -7.03125 C 7.707031 -6.28125 8.046875 -5.269531 8.046875 -4 C 8.046875 -2.738281 7.707031 -1.726562 7.03125 -0.96875 C 6.351562 -0.21875 5.453125 0.15625 4.328125 0.15625 C 3.203125 0.15625 2.300781 -0.21875 1.625 -0.96875 C 0.957031 -1.71875 0.625 -2.726562 0.625 -4 C 0.625 -5.269531 0.957031 -6.28125 1.625 -7.03125 C 2.300781 -7.789062 3.203125 -8.171875 4.328125 -8.171875 Z M 4.328125 -8.171875 "/>
</symbol>
</g>
</defs>
<g id="surface29793">
<rect x="0" y="0" width="300" height="300" style="fill:rgb(100%,100%,100%);fill-opacity:1;stroke:none;"/>
<path style="fill:none;stroke-width:1.2;stroke-linecap:butt;stroke-linejoin:miter;stroke:rgb(0%,0%,0%);stroke-opacity:1;stroke-miterlimit:10;" d="M 35.25 119.25 L 43.902344 129.542969 "/>
<path style="fill:none;stroke-width:1.2;stroke-linecap:butt;stroke-linejoin:miter;stroke:rgb(0%,0%,100%);stroke-opacity:1;stroke-miterlimit:10;" d="M 43.902344 129.542969 L 52.554688 139.839844 "/>
<path style="fill:none;stroke-width:1.2;stroke-linecap:butt;stroke-linejoin:miter;stroke:rgb(0%,0%,100%);stroke-opacity:1;stroke-miterlimit:10;" d="M 52.554688 139.839844 L 49.308594 152.890625 "/>
<path style="fill:none;stroke-width:1.2;stroke-linecap:butt;stroke-linejoin:miter;stroke:rgb(0%,0%,0%);stroke-opacity:1;stroke-miterlimit:10;" d="M 49.308594 152.890625 L 46.066406 165.941406 "/>
<path style="fill:none;stroke-width:1.2;stroke-linecap:butt;stroke-linejoin:miter;stroke:rgb(0%,0%,0%);stroke-opacity:1;stroke-miterlimit:10;" d="M 79.382812 137.941406 L 65.96875 138.890625 "/>
<path style="fill:none;stroke-width:1.2;stroke-linecap:butt;stroke-linejoin:miter;stroke:rgb(0%,0%,100%);stroke-opacity:1;stroke-miterlimit:10;" d="M 65.96875 138.890625 L 52.554688 139.839844 "/>
<path style=" stroke:none;fill-rule:nonzero;fill:rgb(100%,100%,100%);fill-opacity:1;" d="M 48.554688 133.339844 L 56.554688 133.339844 L 56.554688 146.339844 L 48.554688 146.339844 Z M 48.554688 133.339844 "/>
<g style="fill:rgb(0%,0%,100%);fill-opacity:1;">
  <use xlink:href="#glyph0-1" x="48.554688" y="143.241211"/>
</g>
<path style="fill:none;stroke-width:1.2;stroke-linecap:butt;stroke-linejoin:miter;stroke:rgb(0%,0%,0%);stroke-opacity:1;stroke-miterlimit:10;" d="M 46.066406 165.941406 L 68.882812 180.175781 "/>
<path style=" stroke:none;fill-rule:nonzero;fill:rgb(0%,0%,0%);fill-opacity:1;" d="M 89.472656 162.871094 L 65.832031 176.542969 L 71.9375 183.808594 Z M 89.472656 162.871094 "/>
<path style="fill:none;stroke-width:1.2;stroke-linecap:butt;stroke-linejoin:miter;stroke:rgb(0%,0%,0%);stroke-opacity:1;stroke-miterlimit:10;" d="M 89.472656 162.871094 L 79.382812 137.941406 "/>
<path style="fill:none;stroke-width:1.2;stroke-linecap:butt;stroke-linejoin:miter;stroke:rgb(0%,0%,0%);stroke-opacity:1;stroke-miterlimit:10;" d="M 89.472656 162.871094 L 96.90625 188.722656 "/>
<path style="fill:none;stroke-width:1.2;stroke-linecap:butt;stroke-linejoin:miter;stroke:rgb(0%,0%,0%);stroke-opacity:1;stroke-miterlimit:10;" d="M 108.144531 143.511719 L 89.472656 162.871094 "/>
<path style="fill:none;stroke-width:1.2;stroke-linecap:butt;stroke-linejoin:miter;stroke:rgb(0%,0%,0%);stroke-opacity:1;stroke-miterlimit:10;" d="M 96.90625 188.722656 L 123.007812 195.207031 "/>
<path style="fill:none;stroke-width:1.2;stroke-linecap:butt;stroke-linejoin:miter;stroke:rgb(0%,0%,0%);stroke-opacity:1;stroke-miterlimit:10;" d="M 123.007812 195.207031 L 141.675781 175.847656 "/>
<path style="fill:none;stroke-width:1.2;stroke-linecap:butt;stroke-linejoin:miter;stroke:rgb(0%,0%,0%);stroke-opacity:1;stroke-miterlimit:10;" d="M 141.675781 175.847656 L 137.960938 162.925781 "/>
<path style="fill:none;stroke-width:1.2;stroke-linecap:butt;stroke-linejoin:miter;stroke:rgb(0%,0%,100%);stroke-opacity:1;stroke-miterlimit:10;" d="M 137.960938 162.925781 L 134.246094 150 "/>
<path style="fill:none;stroke-width:1.2;stroke-linecap:butt;stroke-linejoin:miter;stroke:rgb(0%,0%,100%);stroke-opacity:1;stroke-miterlimit:10;" d="M 134.246094 150 L 121.195312 146.757812 "/>
<path style="fill:none;stroke-width:1.2;stroke-linecap:butt;stroke-linejoin:miter;stroke:rgb(0%,0%,0%);stroke-opacity:1;stroke-miterlimit:10;" d="M 121.195312 146.757812 L 108.144531 143.511719 "/>
<path style="fill:none;stroke-width:1.2;stroke-linecap:butt;stroke-linejoin:miter;stroke:rgb(0%,0%,100%);stroke-opacity:1;stroke-miterlimit:10;" d="M 134.246094 150 L 143.578125 140.320312 "/>
<path style="fill:none;stroke-width:1.2;stroke-linecap:butt;stroke-linejoin:miter;stroke:rgb(0%,0%,0%);stroke-opacity:1;stroke-miterlimit:10;" d="M 143.578125 140.320312 L 152.914062 130.640625 "/>
<path style=" stroke:none;fill-rule:nonzero;fill:rgb(100%,100%,100%);fill-opacity:1;" d="M 130.246094 143.5 L 138.246094 143.5 L 138.246094 156.5 L 130.246094 156.5 Z M 130.246094 143.5 "/>
<g style="fill:rgb(0%,0%,100%);fill-opacity:1;">
  <use xlink:href="#glyph0-1" x="130.246094" y="153.401367"/>
</g>
<path style="fill:none;stroke-width:1.2;stroke-linecap:butt;stroke-linejoin:miter;stroke:rgb(0%,0%,0%);stroke-opacity:1;stroke-miterlimit:10;" d="M 155.953125 129.765625 L 152.238281 116.839844 "/>
<path style="fill:none;stroke-width:1.2;stroke-linecap:butt;stroke-linejoin:miter;stroke:rgb(100%,0%,0%);stroke-opacity:1;stroke-miterlimit:10;" d="M 152.238281 116.839844 L 148.523438 103.917969 "/>
<path style="fill:none;stroke-width:1.2;stroke-linecap:butt;stroke-linejoin:miter;stroke:rgb(0%,0%,0%);stroke-opacity:1;stroke-miterlimit:10;" d="M 149.871094 131.515625 L 146.15625 118.589844 "/>
<path style="fill:none;stroke-width:1.2;stroke-linecap:butt;stroke-linejoin:miter;stroke:rgb(100%,0%,0%);stroke-opacity:1;stroke-miterlimit:10;" d="M 146.15625 118.589844 L 142.441406 105.664062 "/>
<path style="fill:none;stroke-width:1.2;stroke-linecap:butt;stroke-linejoin:miter;stroke:rgb(0%,0%,0%);stroke-opacity:1;stroke-miterlimit:10;" d="M 152.914062 130.640625 L 179.015625 137.128906 "/>
<path style=" stroke:none;fill-rule:nonzero;fill:rgb(100%,100%,100%);fill-opacity:1;" d="M 141.480469 98.292969 L 150.480469 98.292969 L 150.480469 111.292969 L 141.480469 111.292969 Z M 141.480469 98.292969 "/>
<g style="fill:rgb(100%,0%,0%);fill-opacity:1;">
  <use xlink:href="#glyph0-2" x="141.480469" y="108.194336"/>
</g>
<path style="fill:none;stroke-width:1.2;stroke-linecap:butt;stroke-linejoin:miter;stroke:rgb(0%,0%,0%);stroke-opacity:1;stroke-miterlimit:10;" d="M 179.015625 137.128906 L 186.445312 162.976562 "/>
<path style="fill:none;stroke-width:1.2;stroke-linecap:butt;stroke-linejoin:miter;stroke:rgb(0%,0%,0%);stroke-opacity:1;stroke-miterlimit:10;" d="M 185.839844 137.964844 L 191.785156 158.640625 "/>
<path style="fill:none;stroke-width:1.2;stroke-linecap:butt;stroke-linejoin:miter;stroke:rgb(0%,0%,0%);stroke-opacity:1;stroke-miterlimit:10;" d="M 197.683594 117.765625 L 179.015625 137.128906 "/>
<path style="fill:none;stroke-width:1.2;stroke-linecap:butt;stroke-linejoin:miter;stroke:rgb(0%,0%,0%);stroke-opacity:1;stroke-miterlimit:10;" d="M 186.445312 162.976562 L 212.546875 169.464844 "/>
<path style="fill:none;stroke-width:1.2;stroke-linecap:butt;stroke-linejoin:miter;stroke:rgb(0%,0%,0%);stroke-opacity:1;stroke-miterlimit:10;" d="M 212.546875 169.464844 L 231.21875 150.101562 "/>
<path style="fill:none;stroke-width:1.2;stroke-linecap:butt;stroke-linejoin:miter;stroke:rgb(0%,0%,0%);stroke-opacity:1;stroke-miterlimit:10;" d="M 209.859375 163.132812 L 224.792969 147.644531 "/>
<path style="fill:none;stroke-width:1.2;stroke-linecap:butt;stroke-linejoin:miter;stroke:rgb(0%,0%,0%);stroke-opacity:1;stroke-miterlimit:10;" d="M 231.21875 150.101562 L 223.785156 124.253906 "/>
<path style="fill:none;stroke-width:1.2;stroke-linecap:butt;stroke-linejoin:miter;stroke:rgb(0%,0%,0%);stroke-opacity:1;stroke-miterlimit:10;" d="M 231.21875 150.101562 L 244.265625 153.347656 "/>
<path style="fill:none;stroke-width:1.2;stroke-linecap:butt;stroke-linejoin:miter;stroke:rgb(100%,0%,0%);stroke-opacity:1;stroke-miterlimit:10;" d="M 244.265625 153.347656 L 257.316406 156.589844 "/>
<path style="fill:none;stroke-width:1.2;stroke-linecap:butt;stroke-linejoin:miter;stroke:rgb(0%,0%,0%);stroke-opacity:1;stroke-miterlimit:10;" d="M 223.785156 124.253906 L 197.683594 117.765625 "/>
<path style="fill:none;stroke-width:1.2;stroke-linecap:butt;stroke-linejoin:miter;stroke:rgb(0%,0%,0%);stroke-opacity:1;stroke-miterlimit:10;" d="M 219.648438 129.746094 L 198.765625 124.558594 "/>
<path style="fill:none;stroke-width:1.2;stroke-linecap:butt;stroke-linejoin:miter;stroke:rgb(100%,0%,0%);stroke-opacity:1;stroke-miterlimit:10;" d="M 257.316406 156.589844 L 261.035156 169.515625 "/>
<path style="fill:none;stroke-width:1.2;stroke-linecap:butt;stroke-linejoin:miter;stroke:rgb(0%,0%,0%);stroke-opacity:1;stroke-miterlimit:10;" d="M 261.035156 169.515625 L 264.75 182.4375 "/>
<path style=" stroke:none;fill-rule:nonzero;fill:rgb(100%,100%,100%);fill-opacity:1;" d="M 253.316406 150.089844 L 262.316406 150.089844 L 262.316406 163.089844 L 253.316406 163.089844 Z M 253.316406 150.089844 "/>
<g style="fill:rgb(100%,0%,0%);fill-opacity:1;">
  <use xlink:href="#glyph0-2" x="253.316406" y="159.991211"/>
</g>
</g>
</svg>

<svg xmlns="http://www.w3.org/2000/svg" xmlns:xlink="http://www.w3.org/1999/xlink" width="300pt" height="300pt" viewBox="0 0 300 300"><defs><symbol overflow="visible"><path d="M.547 1.938V-7.75h5.5v9.688zm.625-.61h4.266v-8.47H1.171zm0 0"/></symbol><symbol overflow="visible" id="a"><path d="M1.078-8.016h1.47l3.546 6.704v-6.704h1.062V0H5.688L2.124-6.703V0H1.078zm0 0"/></symbol><symbol overflow="visible" id="b"><path d="M4.328-7.28c-.78 0-1.406.296-1.875.89-.46.585-.687 1.382-.687 2.39 0 1.012.226 1.813.687 2.406.47.586 1.094.875 1.875.875.79 0 1.414-.288 1.875-.874.457-.593.688-1.394.688-2.406 0-1.008-.23-1.805-.687-2.39-.46-.594-1.086-.89-1.875-.89zm0-.892c1.125 0 2.024.383 2.703 1.14C7.708-6.28 8.048-5.27 8.048-4c0 1.262-.34 2.273-1.016 3.03C6.353-.22 5.454.157 4.33.157S2.3-.22 1.625-.97c-.668-.75-1-1.757-1-3.03 0-1.27.332-2.28 1-3.03.676-.76 1.578-1.142 2.703-1.142zm0 0"/></symbol></defs><g><path fill="#fff" d="M0 0h300v300H0z"/><path d="M35.25 119.25l8.652 10.293" stroke-width="1.2" stroke="#000" stroke-miterlimit="10" fill="none"/><path d="M43.902 129.543l8.653 10.297M52.555 139.84l-3.246 13.05" stroke-width="1.2" stroke="#00f" stroke-miterlimit="10" fill="none"/><path d="M49.31 152.89l-3.244 13.05M79.383 137.94l-13.414.95" stroke-width="1.2" stroke="#000" stroke-miterlimit="10" fill="none"/><path d="M65.97 138.89l-13.415.95" stroke-width="1.2" stroke="#00f" stroke-miterlimit="10" fill="none"/><path d="M48.555 133.34h8v13h-8zm0 0" fill="#fff"/><use xlink:href="#a" x="48.555" y="143.241" fill="#00f"/><path d="M46.066 165.94l22.817 14.236" stroke-width="1.2" stroke="#000" stroke-miterlimit="10" fill="none"/><path d="M89.473 162.87l-23.64 13.673 6.105 7.266zm0 0"/><path d="M89.473 162.87l-10.09-24.93M89.473 162.87l7.433 25.853M108.145 143.512l-18.672 19.36M96.906 188.723l26.102 6.484M123.008 195.207l18.668-19.36M141.676 175.848l-3.715-12.922" stroke-width="1.2" stroke="#000" stroke-miterlimit="10" fill="none"/><path d="M137.96 162.926L134.247 150M134.246 150l-13.05-3.242" stroke-width="1.2" stroke="#00f" stroke-miterlimit="10" fill="none"/><path d="M121.195 146.758l-13.05-3.246" stroke-width="1.2" stroke="#000" stroke-miterlimit="10" fill="none"/><path d="M134.246 150l9.332-9.68" stroke-width="1.2" stroke="#00f" stroke-miterlimit="10" fill="none"/><path d="M143.578 140.32l9.336-9.68" stroke-width="1.2" stroke="#000" stroke-miterlimit="10" fill="none"/><path d="M130.246 143.5h8v13h-8zm0 0" fill="#fff"/><use xlink:href="#a" x="130.246" y="153.401" fill="#00f"/><path d="M155.953 129.766l-3.715-12.926" stroke-width="1.2" stroke="#000" stroke-miterlimit="10" fill="none"/><path d="M152.238 116.84l-3.715-12.922" stroke-width="1.2" stroke="#f00" stroke-miterlimit="10" fill="none"/><path d="M149.87 131.516l-3.714-12.926" stroke-width="1.2" stroke="#000" stroke-miterlimit="10" fill="none"/><path d="M146.156 118.59l-3.715-12.926" stroke-width="1.2" stroke="#f00" stroke-miterlimit="10" fill="none"/><path d="M152.914 130.64l26.102 6.49" stroke-width="1.2" stroke="#000" stroke-miterlimit="10" fill="none"/><path d="M141.48 98.293h9v13h-9zm0 0" fill="#fff"/><use xlink:href="#b" x="141.48" y="108.194" fill="#f00"/><path d="M179.016 137.13l7.43 25.847M185.84 137.965l5.945 20.676M197.684 117.766l-18.668 19.363M186.445 162.977l26.102 6.488M212.547 169.465l18.672-19.363M209.86 163.133l14.933-15.488M231.22 150.102l-7.435-25.848M231.22 150.102l13.046 3.246" stroke-width="1.2" stroke="#000" stroke-miterlimit="10" fill="none"/><path d="M244.266 153.348l13.05 3.242" stroke-width="1.2" stroke="#f00" stroke-miterlimit="10" fill="none"/><path d="M223.785 124.254l-26.1-6.488M219.648 129.746l-20.882-5.187" stroke-width="1.2" stroke="#000" stroke-miterlimit="10" fill="none"/><path d="M257.316 156.59l3.72 12.926" stroke-width="1.2" stroke="#f00" stroke-miterlimit="10" fill="none"/><path d="M261.035 169.516l3.715 12.922" stroke-width="1.2" stroke="#000" stroke-miterlimit="10" fill="none"/><path d="M253.316 150.09h9v13h-9zm0 0" fill="#fff"/><use xlink:href="#b" x="253.316" y="159.991" fill="#f00"/></g></svg>
